X:1
T:Bangor (Toronto), 66.77.77
T:Bangor (Toronto), 66.77.77
T:From Johan Freylinghausen, 1704
T:Public Domain Courtesy of the Cyber Hymnal™
C:From Johan Freylinghausen, 1704
Z:Public Domain
Z:Courtesy of the Cyber Hymnal™
%%score ( 1 2 ) ( 3 4 )
L:1/8
Q:1/4=110
M:4/4
K:C
V:1 treble 
V:2 treble 
V:3 bass 
V:4 bass 
V:1
 [Ec]2 | [CG]2 [CA]2 [DG]2 [B,F]2 | [CE]6 [CG]2 | [CA]2 [DF]2 [CE]2 [B,D]2 | C4 [CE]2 C2 | %5
 [DG]2 [B,G]2 [EA]2 [Dc]2 | [DB]4 [DA]2 [FB]2 | [Ec]2 [Ge]2 [Fd]2 [DB]2 | [Ec]4 [Dd]2 [Gd]2 | %9
 [Ge]2 [Gc]2 [FB]2 [Ec]2 | [Dd]4 [Gc]2 [FA]2 | G2 c2 [Ge]2 [Fd]2 | [Ec]6 |] %13
V:2
 x2 | x8 | x8 | x8 | C4 C2 x2 | x8 | x8 | x8 | x8 | x8 | x8 | (ED) (EF) x4 | x6 |] %13
V:3
 [C,G,]2 | [E,G,]2 [C,E,]2 [B,,G,]2 [G,,G,]2 | [C,G,]6 [C,E,]2 | F,2 [D,A,]2 G,2 [G,,F,]2 | %4
 [C,E,]4 [C,G,]2 [A,,^F,]2 | [B,,G,]2 [E,G,]2 [C,G,]2 [D,^F,]2 | [G,,G,]4 [F,A,]2 [D,D]2 | %7
 [A,C]2 [E,C]2 [F,A,]2 G,2 | [C,G,]4 [B,,G,]2 [G,,B,]2 | [C,C]2 [E,G,]2 [D,G,]2 [C,G,]2 | %10
 [G,B,]4 [E,C]2 [F,C]2 | [C,C]2 [A,C]2 [G,C]2 [G,,B,]2 | [C,C]6 |] %13
V:4
 x2 | x8 | x8 | F,2 G,2 x4 | x8 | x8 | x8 | x6 G,2 | x8 | x8 | x8 | x8 | x6 |] %13

